email-newsletter.svg

<svg fill="currentColor" viewBox="0 0 24 24"><path d="M12 .64 8.23 3H5v2L2.97 6.29C2.39 6.64 2 7.27 2 8v10a2 2 0 0 0 2 2h16c1.11 0 2-.89 2-2V8c0-.73-.39-1.36-.97-1.71L19 5V3h-3.23M7 5h10v4.88L12 13 7 9.88M8 6v1.5h8V6M5 7.38v1.25L4 8m15-.62L20 8l-1 .63M8 8.5V10h8V8.5Z"/></svg>

<svg  viewBox="0 0 24 24" fill="currentColor"><path  d="M12 .64L8.23 3H5V5L2.97 6.29C2.39 6.64 2 7.27 2 8V18C2 19.11 2.9 20 4 20H20C21.11 20 22 19.11 22 18V8C22 7.27 21.61 6.64 21.03 6.29L19 5V3H15.77M7 5H17V9.88L12 13L7 9.88M8 6V7.5H16V6M5 7.38V8.63L4 8M19 7.38L20 8L19 8.63M8 8.5V10H16V8.5Z"/></svg>
